assets/Up-right arrow/Flat/up-right_arrow_flat.svg

<svg width="32" height="32" viewBox="0 0 32 32" fill="none" xmlns="http://www.w3.org/2000/svg">
<path d="M2 6C2 3.79086 3.79086 2 6 2H26C28.2091 2 30 3.79086 30 6V26C30 28.2091 28.2091 30 26 30H6C3.79086 30 2 28.2091 2 26V6Z" fill="#00A6ED"/>
<path d="M23.0157 10.0051C23.0185 9.44884 22.5669 8.99717 22.0106 9.00001L15.5695 9.03289C14.681 9.03742 14.2393 10.1118 14.8675 10.74L16.3603 12.2328C16.4873 12.3598 16.4414 12.5811 16.3113 12.7048C16.3051 12.7107 16.2989 12.7167 16.2929 12.7227L8.70708 20.3085C8.31655 20.699 8.31655 21.3322 8.70708 21.7227L10.2929 23.3085C10.6834 23.699 11.3166 23.699 11.7071 23.3085L19.2929 15.7227C19.2989 15.7167 19.3049 15.7105 19.3108 15.7043C19.4345 15.5742 19.6558 15.5283 19.7828 15.6553L21.2757 17.1482C21.9039 17.7764 22.9783 17.3346 22.9828 16.4462L23.0157 10.0051Z" fill="white"/>
</svg>

<svg xmlns="http://www.w3.org/2000/svg" width="32" height="32" fill="none"><path fill="#00A6ED" d="M2 6a4 4 0 0 1 4-4h20a4 4 0 0 1 4 4v20a4 4 0 0 1-4 4H6a4 4 0 0 1-4-4V6Z"/><path fill="#fff" d="M23.016 10.005A1 1 0 0 0 22.01 9l-6.441.033c-.889.004-1.33 1.079-.703 1.707l1.493 1.493c.127.127.081.348-.049.472a1.04 1.04 0 0 0-.018.018l-7.586 7.585a1 1 0 0 0 0 1.415l1.586 1.585a1 1 0 0 0 1.414 0l7.586-7.585a1.04 1.04 0 0 0 .018-.019c.123-.13.345-.176.472-.049l1.493 1.493c.628.628 1.702.187 1.707-.702l.033-6.44Z"/></svg>
